X:1
T:I see the light
T:I See The Light
%%score 1 2 3 4
L:1/8
M:4/4
K:C
V:1 treble nm="Flute" snm="Fl."
V:2 treble nm="Flute" snm="Fl."
V:3 treble nm="Flute" snm="Fl."
V:4 treble nm="Violin" snm="Vln."
V:1
 z8 | z8 | z8 | z8 | g2 f2 e4 | dedB c2 G2 | g2 f2 e4 | dedB c4 | a2 g2 f4 | gc'gc e2 d2 | %10
 g2 z f e2 c2 | d8 | g2 f2 e4 | dedB c2 G2 | g2 f2 e4 | dedB c4 | a2 g2 f3 a | b3 g g3 b | %18
 c'2 b2 a3 e | g6 ab | c'2 f2 f3 e | g6 cd | d3 d g3 f | f2 e4 ab | c'2 f2 f3 e | g6 cd | %26
 e3 f e3 d | c6 ab | c'2 f2 f3 e | g6 cd | e3 f e2 d2 | d2 c4 z2 | z4 a4 | g2 f2 e4 | dedB c2 G2 | %35
 g2 f2 e2 d2 | c8 | z8 | a2 g2 f4 | gc'gc e2 d2 | g2 f2 e2 c2 | d z z2 z4 | _edc_B _AGAF | %43
[K:Eb] e8 | z dad z GeG | z GeG z GeG | z gfd z age | z ec'e z e c'2 | z ebe e2 d2 | %49
 z BgB z A =a2 | z faf defg | z BgB z BgB | z dad z B g2 | z BgB z BgB | z dad z B g2 | %55
 z ec'e z e c'2 | z dbd z d b2 | z GeG z c =a2 | z6 c'd' | e'2 a2 a3 g | b4 z4 | z8 | z6 c'd' | %63
 e'2 a2 a3 g | b4 z2 ef | g3 a g2 d'2 | e'4 z2 ga | b2 aa- a2 bg- | g4 z2 gg | f3 e d2 f2 | %70
 f3 a a4 | z8 | b2 a2 g2 z2 | fgfd e2 B2 | b3 a g3 d | e8 | z8 |[M:2/4]"^Slowly, Freely" b2 a2 | %78
[M:4/4] g2 z2 d'4 | e'8 | z8 | !fermata!e'8 |] %82
V:2
 z8 | z8 | z8 | z8 | z8 | z8 | z8 | z8 | z8 | z8 | z8 | z8 | z8 | z8 | z8 | z8 | f8 | g8 | a8 | %19
 f4 d4 | z cfc z c a2 | z cec z c g2 | z BdB z d f2 | z GcG z c e2 | z cfc z c a2 | z cec c2 AB | %26
 z GBG edcB | A6 z2 | z cfc z c a2 | z cec c2 AB | z GBG z B G2 | z2 z G AcFG | Acfg c'4 | e8 | %34
 d4 c4 | c4 B4 | z3 d ecdG- | GGcd e2 g2 | z8 | z8 | z EGc z ^F A2 | z8 | _B8 |[K:Eb] e2 c2 B4 | %44
 z8 | g2 f2 e4 | z8 | a2 g2 f2 z2 | B4 c2 B2 | e4 f4 | z2 A/B/c defg | b2 z2 g4 | a4 g4 | g8 | %54
 f4 e4 | c8 | d8 | e4 f4 | B2 AB cB A2 | z ec'e z e c'2 | FGBG e4 | z faf d2 B2 | z BgB z BgB | %63
 z ec'e z e c'2 | z ege z e b2 | z dfd =B2 d2 | eddc c2 z2 | z ec'e be A2 | z BfB z B g2 | %69
 z dbd z d b2 | z EAB c2 AB | ceab e'4 | z gfg b2 z2 | abaf e2 g2 | z e a2 a2 f2 | b2 a2 g4 | %76
 fgfd e4 |[M:2/4] a4- |[M:4/4] a8 | z gbg e' b2 b | z gbg e'2 b2 | !fermata!b8 |] %82
V:3
 z8 | z8 | z8 | z8 | e8 | f4 e4 | e8 | d4 c4 | c8 | e4 c2 d2 | c4 d4 | G8 | e8 | f4 e4 | e8 | %15
 d4 c4 | c8 | e8 | c4 d4 | G8 | A8 | G8 | B4 d4 | c6 AB | c8 | G6 z2 | B4 G4 | A6 z2 | c8 | G6 z2 | %30
 B4 G4 | z8 | z4 f4 | G8 | G4 E4 | A4 G4 | z8 | z8 | c8 | e4 c2 d2 | c4 d4 | z8 | _A8 |[K:Eb] G8 | %44
 B4 G4 | G8 | A4 G4 | A8 | G4 A2 F2 | G4 =A4 | B4 B4 | e8 | f4 e4 | e8 | f4 e4 | A8 | G8 | c4 F4 | %58
 B8 | A8 | G8 | B8 | e8 | A8 | G8 | F4 G2 =B2 | c6 B2 | A8 | e8 | G8 | A8- | A8 | e8 | e4 e2 g2 | %74
 A4 B4 | e4 d4 | c4 F4 |[M:2/4] B4- |[M:4/4] B8 | e8 | e8 | !fermata!e8 |] %82
V:4
 CGcG eGcG | CGcG gGeG | CGcG eGcG | CGcG gGcG | CEGE cEGE | FGBG E2 c2 | CEGE cEGE | FGBG E2 c2 | %8
 FAcA- AA c2 | EGcG F2 G2 | CEGc D^F A2 | cFAc BG B2 | CEGE cEGE | FGBG E2 c2 | CEGE cEGE | %15
 FGBG E2 c2 | FAcA- AA c2 | EBgB- BB d2 | AE c2 [DAc]4 | GDFD GD F2 | Fcac Fc a2 | Ecgc Ec g2 | %22
 Gdfd Gd f2 | CGeG CG e2 | Fcac Fc a2 | CGeG C2 CD | EBdB [Ed]4 | Aeae A2 G2 | Fcac Fc a2 | %29
 CGeG C4 | EBeB EB e2 | [Fc-]8 | [Fc]4 [Fc]4 | C8 | D4 C4 | F4 [DF]4 | CG c6 | e6 z2 | %38
 FAcA- AA c2 | EGcG F2 G2 | C4 D4 | DCDE FGAB | c_Bcd _efg_a |[K:Eb] b2 a2 g4 | fgfd e2 B2 | %45
 b2 a2 g4 | fgfd e4 | c'2 b2 a4 | be'be g2 f2 | b2 z2 z cge | f4 z4 | b2 a2 g2 z2 | fgfd e2 B2 | %53
 b2 a2 g2 z2 | fgfd e4 | c'2 b2 a2 z e- | (3e2 d'2 c'2 b2 z e | e'3 d' c'3 g | b6 cd | e2 A2 A3 G | %60
 B4 z2 EG | F3 F B3 A | A2 G2 z2 cd | e2 A2 A3 G | B4 z4 | z8 | z4 z2 ce | g2 fe- e2 GB- | %68
 B4 z2 GB | d3 c B2 d2 | d3 e e4 | z8 | d2 c2 B2 z2 | ABAF G2 E2 | d3 c B3 A | G8 | z8 | %77
[M:2/4] e2 c2 |[M:4/4] B2 z2 f4 | g8 | z8 | !fermata![Ge]8 |] %82

